svgs/thin/badge.svg

<svg xmlns="http://www.w3.org/2000/svg" viewBox="0 0 512 512"><!--! Font Awesome Pro 6.3.0 by @fontawesome - https://fontawesome.com License - https://fontawesome.com/license (Commercial License) Copyright 2023 Fonticons, Inc. --><path d="M169.9 48.16C187.7 19.28 219.6 0 256 0C292.4 0 324.3 19.28 342.1 48.16C375.1 40.3 411.3 49.22 437 74.98C462.8 100.7 471.7 136.9 463.8 169.9C492.7 187.7 512 219.6 512 256C512 292.4 492.7 324.3 463.8 342.1C471.7 375.1 462.8 411.3 437 437C411.3 462.8 375.1 471.7 342.1 463.8C324.3 492.7 292.4 512 256 512C219.6 512 187.7 492.7 169.9 463.8C136.9 471.7 100.7 462.8 74.98 437C49.23 411.3 40.3 375.1 48.16 342.1C19.28 324.3 0 292.4 0 256C0 219.6 19.28 187.7 48.16 169.9C40.3 136.9 49.23 100.7 74.98 74.98C100.7 49.23 136.9 40.3 169.9 48.16H169.9zM256 16C223.4 16 195.1 34.32 180.8 61.25L177.8 67.09L171.4 65.15C142.3 56.2 109.3 63.26 86.29 86.29C63.26 109.3 56.2 142.3 65.15 171.4L67.09 177.8L61.25 180.8C34.32 195.1 16 223.4 16 255.1C16 288.6 34.32 316.9 61.25 331.2L67.09 334.2L65.15 340.6C56.2 369.7 63.26 402.7 86.29 425.7C109.3 448.7 142.3 455.8 171.4 446.9L177.8 444.9L180.8 450.8C195.1 477.7 223.4 496 256 496C288.6 496 316.9 477.7 331.2 450.8L334.2 444.9L340.6 446.9C369.7 455.8 402.7 448.7 425.7 425.7C448.7 402.7 455.8 369.7 446.9 340.6L444.9 334.2L450.8 331.2C477.7 316.9 496 288.6 496 255.1C496 223.4 477.7 195.1 450.8 180.8L444.9 177.8L446.9 171.4C455.8 142.3 448.7 109.3 425.7 86.29C402.7 63.26 369.7 56.2 340.6 65.15L334.2 67.09L331.2 61.25C316.9 34.32 288.6 15.1 255.1 15.1L256 16z"/></svg>

<svg xmlns="http://www.w3.org/2000/svg" viewBox="0 0 512 512"><!--! Font Awesome Pro 6.4.0 by @fontawesome - https://fontawesome.com License - https://fontawesome.com/license (Commercial License) Copyright 2023 Fonticons, Inc. --><path d="M256 16c-32.6 0-60.9 18.3-75.2 45.2c-1.8 3.4-5.7 5-9.4 3.9c-29.1-8.9-62.1-1.9-85.1 21.1s-30.1 56-21.1 85.1c1.1 3.7-.5 7.6-3.9 9.4C34.3 195.1 16 223.4 16 256s18.3 60.9 45.2 75.2c3.4 1.8 5 5.8 3.9 9.4c-8.9 29.1-1.9 62.1 21.1 85.1s56 30.1 85.1 21.1c3.7-1.1 7.6 .5 9.4 3.9C195.1 477.7 223.4 496 256 496s60.9-18.3 75.2-45.2c1.8-3.4 5.8-5 9.4-3.9c29.1 8.9 62.1 1.9 85.1-21.1s30.1-56 21.1-85.1c-1.1-3.7 .5-7.6 3.9-9.4C477.7 316.9 496 288.6 496 256s-18.3-60.9-45.2-75.2c-3.4-1.8-5-5.7-3.9-9.4c8.9-29.1 1.9-62.1-21.1-85.1s-56-30.1-85.1-21.1c-3.7 1.1-7.6-.5-9.4-3.9C316.9 34.3 288.6 16 256 16zM169.9 48.2C187.7 19.3 219.6 0 256 0s68.3 19.3 86.1 48.2c33-7.9 69.2 1.1 94.9 26.8s34.7 62 26.8 94.9C492.7 187.7 512 219.6 512 256s-19.3 68.3-48.2 86.1c7.9 33-1.1 69.2-26.8 94.9s-61.9 34.7-94.9 26.8C324.3 492.7 292.4 512 256 512s-68.3-19.3-86.1-48.2c-33 7.9-69.2-1.1-94.9-26.8s-34.7-61.9-26.8-94.9C19.3 324.3 0 292.4 0 256s19.3-68.3 48.2-86.1c-7.9-33 1.1-69.2 26.8-94.9s61.9-34.7 94.9-26.8z"/></svg>
